!!!OTL: 665. Liebeswechsel.
!!!ARE: Europa, Mitteleuropa, Deutschland, Bergstrasse, Alsbach
!!!SCT: E0665
!!!TXL: @@DE
!!!YEM: Copyright 1995, estate of Helmut Schaffrath.
**kern	**text
*ICvox	*
*M3/8	*
*k[f#c#]	*
*D:	*
=1	=1
!LO:TX:a:t=Munter.	!
!LO:TX:a:t=Mel. aus Alsbach an der Bergſtr.	!
{4.a^^	Aus,
=2	=2
4.a^^	aus,
=3	=3
8f#^^	aus
8a	iſts
8a	mit
=4	=4
8f#}	mir,
{8a	und
8a	mein
=5	=5
4.b^^	Haus,
=6	=6
4.b^^	Haus,
=7	=7
8b^^	Haus
8b	hat
8b	kein
=8	=8
8dd}	Thür,
{8cc#	und
8b	mein
=9	=9
4.a^^	Thür,
=10	=10
4.a^^	Thür,
=11	=11
8a^^	Thür
8g	hat
8g	kein
=12	=12
8a}	Schloß,
{8f#	und
8f#	mein
=13	=13
8g	Schatʒ
8e	bin
8e	ich
=14	=14
8d}	los,
{8f#	und
8a	mein
=15	=15
8a	Thür
8g	hat
8g	kein
=16	=16
8a}	Schloß,
{8f#	und
8f#	mein'
=17	=17
8g	Schatʒ
8e	bin
8e	ich
=18	=18
4d	los.
8r}	.
==	==
!!!AGN: Liebes - Lied, Trennung
!!!ONB: ESAC (Essen Associative Code) Database: ERK2
!!!AMT: simple triple
!!!AIN: vox
!!!EED: Helmut Schaffrath
!!!EEV: 1.0
!!!GTL: Liebeslieder [Neuere (aus dem 18. bis 19. Jahrh.) - Liebeslust]
!!!URL-scan: https://rosdok.uni-rostock.de/mcrviewer/recordIdentifier/rosdok_ppn745177662/iview2/phys_0469.iview2?x=125.61531768759119&y=1567.3584883669391&scale=0.7029437510502773&rotation=0&layout=singlePageLayout
!!!ENC: Anna Maria Matuszewska
!!!EEV: 2024/12/12
*-	*-
